!!!OTL: WIR SIND DREI KOENIGE DER WELT
!!!ARE: Europa, Mitteleuropa, Deutschland
!!!SCT: B0560
!!!YEM: Copyright 1995, estate of Helmut Schaffrath.
**kern
*ICvox
*Ivox
*M4/4
*k[b-]
*F:
{8f
8a
=1
4.cc
8a
8.b-
16a
8b-
8cc
=2
2a
4r}
{4f
=3
4.a
8a
8g
8cc
8b-
8e
=4
4g
4f
4r}
{8f
8a
=5
4.cc
8a
4.f
8e-
=6
8d
8f
8b-
8dd
4ff
8ee}
{8dd
=7
4.cc
8a
8.cc
16b-
8a
8g
=8
4g
4f
4r}
{4a
=9
4.g
8a
8.cc
16b-
8a
8g
=10
2f
4r}
{4a
=11
4.g
8a
8.cc
16b-
8a
8g
=12
2f
4r}
{8f
8a
=13
4.cc
8a
4.f
8e-
=14
8d
8f
8b-
8dd
4ff
8ee}
{8dd
=15
4.cc
8a
8.cc
16b-
8a
8g
=16
2f
4r}
==
!!!AGN: Studenten -, Trink - Lied
!!!ONB: ESAC (Essen Associative Code) Database: BOEHME
!!!AMT: simple quadruple
!!!AIN: vox
!!!EED: Helmut Schaffrath
!!!EEV: 1.0
*-
